remix/Editor/node-tree.svg

<svg viewBox="0 0 24 24" fill="currentColor" xmlns="http://www.w3.org/2000/svg"><path d="M10 2C10.5523 2 11 2.44772 11 3V7C11 7.55228 10.5523 8 10 8H8V10H13V9C13 8.44772 13.4477 8 14 8H20C20.5523 8 21 8.44772 21 9V13C21 13.5523 20.5523 14 20 14H14C13.4477 14 13 13.5523 13 13V12H8V18H13V17C13 16.4477 13.4477 16 14 16H20C20.5523 16 21 16.4477 21 17V21C21 21.5523 20.5523 22 20 22H14C13.4477 22 13 21.5523 13 21V20H7C6.44772 20 6 19.5523 6 19V8H4C3.44772 8 3 7.55228 3 7V3C3 2.44772 3.44772 2 4 2H10ZM19 18H15V20H19V18ZM19 10H15V12H19V10ZM9 4H5V6H9V4Z"/></svg>

<svg viewBox="0 0 24 24" xmlns="http://www.w3.org/2000/svg"><path fill="none" d="M0 0h24v24H0Z"/><path d="M10 2c.55 0 1 .44 1 1v4c0 .55-.45 1-1 1H8v2h5V9c0-.56.44-1 1-1h6c.55 0 1 .44 1 1v4c0 .55-.45 1-1 1h-6c-.56 0-1-.45-1-1v-1H8v6h5v-1c0-.56.44-1 1-1h6c.55 0 1 .44 1 1v4c0 .55-.45 1-1 1h-6c-.56 0-1-.45-1-1v-1H7c-.56 0-1-.45-1-1V8H4c-.552 0-1-.45-1-1V3c0-.552.44-1 1-1h6Zm9 16h-4v2h4v-2Zm0-8h-4v2h4v-2ZM9 4H5v2h4V4Z"/></svg>
